X:155
T:Peard, The Postie
R:reel
C:Bruce Osborne - July  2005
Z:abc by bosborne@kos.net
M:2/4
L:1/8
K:Cmaj
e/f/|gg/a/ g/e/c/e/|g/e/c/A/ G/E/F/E/|D/E/D/C/ B,/D/G/B/|c/d/c/A/ Ge/f/|\
gg/a/ g/e/c/e/|g/e/c/A/ G/E/F/E/|D/E/D/C/ B,/D/G/B/|c/B/e/d/ c:|
|:G/F/|E/c/B/c/ e/c/B/c/|e/c/e/f/ gd/e/|f/d/B/d/ G/d/^c/d/|e/c/c/B/ cG/F/|\
E/c/B/c/ e/c/B/c/|e/c/e/f/ gd/e/|f/d/B/d/ G/d/^c/d/|e/c/c/B/ c:|
